src/assets/icons/navigation-menu-vertical.svg

<svg xmlns="http://www.w3.org/2000/svg" viewBox="0 0 24 24"><path d="M11.987 24.003c-1.861 0-3.375-1.514-3.375-3.375s1.514-3.375 3.375-3.375 3.375 1.514 3.375 3.375-1.514 3.375-3.375 3.375zm0-5.25c-1.034 0-1.875.841-1.875 1.875s.841 1.875 1.875 1.875 1.875-.841 1.875-1.875-.841-1.875-1.875-1.875zm0-12c-1.861 0-3.375-1.514-3.375-3.375S10.126.003 11.987.003s3.375 1.514 3.375 3.375-1.514 3.375-3.375 3.375zm0-5.25c-1.034 0-1.875.841-1.875 1.875s.841 1.875 1.875 1.875 1.875-.841 1.875-1.875-.841-1.875-1.875-1.875zm0 13.875a3.379 3.379 0 01-3.375-3.375c0-1.861 1.514-3.375 3.375-3.375s3.375 1.514 3.375 3.375a3.379 3.379 0 01-3.375 3.375zm0-5.25c-1.034 0-1.875.841-1.875 1.875s.841 1.875 1.875 1.875 1.875-.841 1.875-1.875-.841-1.875-1.875-1.875z"/></svg>

<?xml version="1.0" encoding="utf-8"?>
<!-- Generator: Adobe Illustrator 22.1.0, SVG Export Plug-In . SVG Version: 6.00 Build 0)  -->
<svg version="1.1" id="Layer_1" xmlns="http://www.w3.org/2000/svg" xmlns:xlink="http://www.w3.org/1999/xlink" x="0px" y="0px"
	 viewBox="0 0 24 24" style="enable-background:new 0 0 24 24;" xml:space="preserve">
<title>navigation-menu-vertical</title>
<g>
	<path d="M11.987,24.003c-1.861,0-3.375-1.514-3.375-3.375s1.514-3.375,3.375-3.375s3.375,1.514,3.375,3.375
		S13.848,24.003,11.987,24.003z M11.987,18.753c-1.034,0-1.875,0.841-1.875,1.875s0.841,1.875,1.875,1.875
		c1.034,0,1.875-0.841,1.875-1.875S13.021,18.753,11.987,18.753z"/>
	<path d="M11.987,6.753c-1.861,0-3.375-1.514-3.375-3.375s1.514-3.375,3.375-3.375s3.375,1.514,3.375,3.375
		S13.848,6.753,11.987,6.753z M11.987,1.503c-1.034,0-1.875,0.841-1.875,1.875s0.841,1.875,1.875,1.875
		c1.034,0,1.875-0.841,1.875-1.875S13.021,1.503,11.987,1.503z"/>
	<path d="M11.987,15.378c-1.861,0-3.375-1.514-3.375-3.375c0-1.861,1.514-3.375,3.375-3.375s3.375,1.514,3.375,3.375
		C15.362,13.864,13.848,15.378,11.987,15.378z M11.987,10.128c-1.034,0-1.875,0.841-1.875,1.875s0.841,1.875,1.875,1.875
		c1.034,0,1.875-0.841,1.875-1.875S13.021,10.128,11.987,10.128z"/>
</g>
</svg>
